X:31
T:Air in the Pirates
N:page 20 on manuscript
M:3/8
Q:50
L:1/8
K:F
cc>f | {e}d/>d/d z | (c/f/)(A/c/)B/G/ | {G}F2 z | cc>f | {e}d/>d/d z | (c/f/)(A/c/)(B/A/) | {A}G2 z | Be>g |
f/>c/c z | B/>Bc A//B//=B//c// | {A}G2 z | (f/a/)(e/f/)(c/_e/) | (d/>=e/)f Hz/ d// | c/>B/ AG | {G}A2 z | (f/a/)(e/f/)(c/_e/) |
(d/>e/)f Hz/2 d// | c/>B/ ATG | F z/ (A/B/G/) | c z/ (A/B/G/) | F/>A/ F z/ H|] F/ | f2 e/>e/ | (d/>c)c z/ F/ |
d2 c/>c/ | BA z/ F/ | f2 e/>e/ | (d/>c/)c z/ F/ | d2 c/>c/ | BA z/ f/ | f/>d/ BA | AG z |
ce>c | {c}=BB z | df>d | (d/>c/c) z | (d/e//f//) ed | (e/>f/).g z/ c/ | (d/e//f//) cT=B | c2 z |]

